pages/enterprises/enterprise-innovation-meets-lean-startup.svg

<?xml version="1.0" encoding="UTF-8"?>
<svg width="300px" height="345px" viewBox="0 0 300 345" version="1.1" xmlns="http://www.w3.org/2000/svg" xmlns:xlink="http://www.w3.org/1999/xlink">
    <!-- Generator: Sketch 41.2 (35397) - http://www.bohemiancoding.com/sketch -->
    <title>enterprise-innovation-meets-lean-startup</title>
    <desc>Created with Sketch.</desc>
    <defs></defs>
    <g id="Page-1" stroke="none" stroke-width="1" fill="none" fill-rule="evenodd">
        <g id="enterprise-innovation-meets-lean-startup" fill="#0070D3">
            <rect id="Rectangle-path" x="144.444445" y="0" width="11.1111111" height="22.2222222"></rect>
            <rect id="Rectangle-path" transform="translate(108.332250, 22.278310) rotate(59.999272) translate(-108.332250, -22.278310) " x="97.2217303" y="16.7228768" width="22.2210389" height="11.1108667"></rect>
            <rect id="Rectangle-path" transform="translate(77.826124, 52.771958) rotate(30.000728) translate(-77.826124, -52.771958) " x="66.715605" y="47.2165249" width="22.2210389" height="11.1108667"></rect>
            <rect id="Rectangle-path" x="55.5555555" y="88.8888891" width="22.2222222" height="11.1111111"></rect>
            <rect id="Rectangle-path" transform="translate(77.834101, 136.111675) rotate(240.007099) translate(-77.834101, -136.111675) " x="72.2784643" y="125.000402" width="11.1112735" height="22.2225469"></rect>
            <rect id="Rectangle-path" transform="translate(222.160086, 136.104989) rotate(30.000728) translate(-222.160086, -136.104989) " x="211.049566" y="130.549556" width="22.2210389" height="11.1108667"></rect>
            <rect id="Rectangle-path" x="222.222222" y="88.8888891" width="22.2222222" height="11.1111111"></rect>
            <rect id="Rectangle-path" transform="translate(222.176998, 52.786854) rotate(60.007099) translate(-222.176998, -52.786854) " x="216.621361" y="41.6755809" width="11.1112735" height="22.2225469"></rect>
            <rect id="Rectangle-path" transform="translate(191.670374, 22.271941) rotate(29.992901) translate(-191.670374, -22.271941) " x="186.114737" y="11.1606672" width="11.1112735" height="22.2225469"></rect>
            <path d="M211.111111,94.4444443 C211.111111,60.75 183.694444,33.3333333 150,33.3333333 C116.305556,33.3333333 88.8888891,60.75 88.8888891,94.4444443 C88.8888891,110.177778 94.7888889,124.966666 105.555555,136.355555 L105.555555,138.888889 L94.4444443,138.888889 L94.4444443,150 L105.555555,150 L105.555555,161.111111 L94.4444443,161.111111 L94.4444443,172.222222 L105.555555,172.222222 L105.555555,194.444445 L194.444445,194.444445 L194.444445,172.222222 L205.555556,172.222222 L205.555556,161.111111 L194.444445,161.111111 L194.444445,150 L205.555556,150 L205.555556,138.888889 L194.444445,138.888889 L194.444445,136.355555 C205.205555,124.966666 211.111111,110.177778 211.111111,94.4444443 Z M183.333333,183.333333 L116.666667,183.333333 L116.666667,172.222222 L183.333333,172.222222 L183.333333,183.333333 Z M183.333333,161.111111 L116.666667,161.111111 L116.666667,150 L183.333333,150 L183.333333,161.111111 Z M185.000001,130.122222 L183.333333,131.755556 L183.333333,138.888889 L155.555555,138.888889 L155.555555,115.877778 C165.111111,113.394445 172.222222,104.772222 172.222222,94.4444443 C172.222222,82.1888888 162.255555,72.2222223 150,72.2222223 C137.744445,72.2222223 127.777778,82.1888888 127.777778,94.4444443 C127.777778,104.772222 134.883333,113.394445 144.444445,115.877778 L144.444445,138.888889 L116.666667,138.888889 L116.666667,131.755556 L114.999999,130.122222 C105.327777,120.633333 99.9999994,107.961111 99.9999994,94.4444443 C99.9999994,66.8722222 122.427777,44.4444445 150,44.4444445 C177.572223,44.4444445 200.000001,66.8722222 200.000001,94.4444443 C200.000001,107.961111 194.672223,120.633333 185.000001,130.122222 Z M150,105.555555 C143.872222,105.555555 138.888889,100.572222 138.888889,94.4444443 C138.888889,88.3166674 143.872222,83.3333332 150,83.3333332 C156.122223,83.3333332 161.111111,88.3166674 161.111111,94.4444443 C161.111111,100.572222 156.122223,105.555555 150,105.555555 Z" id="Shape"></path>
            <path d="M277.777778,133.333334 C265.522222,133.333334 255.555555,143.300001 255.555555,155.555555 C255.555555,161.144445 257.694445,166.194445 261.111111,170.1 L261.111111,221.338889 C255.916666,219.061111 250.316667,217.533333 244.444444,216.950001 L244.444444,205.555556 L55.5555555,205.555556 L55.5555555,216.950001 C49.6777778,217.538889 44.0833334,219.061111 38.8888889,221.338889 L38.8888889,170.1 C42.3055556,166.194445 44.4444445,161.144445 44.4444445,155.555555 C44.4444445,143.300001 34.4777778,133.333334 22.2222222,133.333334 C9.96666669,133.333334 0,143.300001 0,155.555555 C0,161.144445 2.13888889,166.194445 5.55555555,170.1 L5.55555555,272.222223 C5.55555555,300.977778 27.5222223,324.699999 55.5555555,327.494445 L55.5555555,344.444445 L244.444444,344.444445 L244.444444,327.494445 C272.477778,324.694444 294.444445,300.977778 294.444445,272.222223 L294.444445,170.1 C297.861111,166.194445 300,161.144445 300,155.555555 C300,143.300001 290.033333,133.333334 277.777778,133.333334 Z M11.1111111,155.555555 C11.1111111,149.427777 16.0944445,144.444445 22.2222222,144.444445 C28.3444444,144.444445 33.3333333,149.427777 33.3333333,155.555555 C33.3333333,161.683334 28.3444444,166.666666 22.2222222,166.666666 C16.0944445,166.666666 11.1111111,161.683334 11.1111111,155.555555 Z M27.9222222,227.777778 C23.6499999,230.977778 19.8666667,234.761111 16.6666666,239.033333 L16.6666666,176.988889 C18.45,177.455555 20.2944445,177.777777 22.2222222,177.777777 C24.15,177.777777 25.9888889,177.455555 27.7777778,176.988889 L27.7777778,227.777778 L27.9222222,227.777778 Z M55.5555555,244.444444 L44.4444445,244.444444 L44.4444445,255.555555 L55.5555555,255.555555 L55.5555555,266.666667 L44.4444445,266.666667 L44.4444445,277.777778 L55.5555555,277.777778 L55.5555555,288.888889 L44.4444445,288.888889 L44.4444445,300 L55.5555555,300 L55.5555555,316.283333 C33.6666667,313.533333 16.6666666,294.844444 16.6666666,272.222223 C16.6666666,249.6 33.6666667,230.911111 55.5555555,228.161111 L55.5555555,244.444444 Z M177.777777,333.333333 L122.222223,333.333333 L122.222223,311.111111 L177.777777,311.111111 L177.777777,333.333333 Z M233.333333,333.333333 L188.888889,333.333333 L188.888889,300 L111.111111,300 L111.111111,333.333333 L66.6666667,333.333333 L66.6666667,216.666667 L233.333333,216.666667 L233.333333,333.333333 Z M244.444444,316.283333 L244.444444,300 L255.555555,300 L255.555555,288.888889 L244.444444,288.888889 L244.444444,277.777778 L255.555555,277.777778 L255.555555,266.666667 L244.444444,266.666667 L244.444444,255.555555 L255.555555,255.555555 L255.555555,244.444444 L244.444444,244.444444 L244.444444,228.161111 C266.333333,230.911111 283.333334,249.6 283.333334,272.222223 C283.333334,294.844444 266.333333,313.533333 244.444444,316.283333 Z M283.333334,239.033333 C280.133333,234.761111 276.350001,230.977778 272.077778,227.777778 L272.222223,227.777778 L272.222223,176.988889 C274.005555,177.455555 275.85,177.777777 277.777778,177.777777 C279.705555,177.777777 281.544445,177.455555 283.333334,176.988889 L283.333334,239.033333 Z M277.777778,166.666666 C271.65,166.666666 266.666667,161.683334 266.666667,155.555555 C266.666667,149.427777 271.65,144.444445 277.777778,144.444445 C283.899999,144.444445 288.888889,149.427777 288.888889,155.555555 C288.888889,161.683334 283.899999,166.666666 277.777778,166.666666 Z" id="Shape"></path>
            <path d="M105.555555,294.444445 C120.872223,294.444445 133.333334,281.983334 133.333334,266.666667 C133.333334,251.349999 120.872223,238.888889 105.555555,238.888889 C90.2388891,238.888889 77.777778,251.349999 77.777778,266.666667 C77.777778,281.983334 90.2388891,294.444445 105.555555,294.444445 Z M105.555555,249.999999 C114.744445,249.999999 122.222223,257.477778 122.222223,266.666667 C122.222223,275.855555 114.744445,283.333334 105.555555,283.333334 C96.3666669,283.333334 88.8888891,275.855555 88.8888891,266.666667 C88.8888891,257.477778 96.3666669,249.999999 105.555555,249.999999 Z" id="Shape"></path>
            <path d="M194.444445,294.444445 C209.761111,294.444445 222.222222,281.983334 222.222222,266.666667 C222.222222,251.349999 209.761111,238.888889 194.444445,238.888889 C179.127777,238.888889 166.666666,251.349999 166.666666,266.666667 C166.666666,281.983334 179.127777,294.444445 194.444445,294.444445 Z M194.444445,249.999999 C203.633333,249.999999 211.111111,257.477778 211.111111,266.666667 C211.111111,275.855555 203.633333,283.333334 194.444445,283.333334 C185.255555,283.333334 177.777777,275.855555 177.777777,266.666667 C177.777777,257.477778 185.255555,249.999999 194.444445,249.999999 Z" id="Shape"></path>
        </g>
    </g>
</svg>

<svg width="300" height="345" viewBox="0 0 300 345" xmlns="http://www.w3.org/2000/svg"><title>enterprise-innovation-meets-lean-startup</title><g fill="#0070D3" fill-rule="evenodd"><path d="M144.444 0h11.111v22.222h-11.111zM107.588 9.879l11.11 19.244-9.622 5.555-11.11-19.243zM70.982 42.406l19.244 11.11-5.556 9.623-19.244-11.11zM55.556 88.889h22.222V100H55.556zM70.988 146.478l-5.554-9.623 19.247-11.109 5.554 9.623zM215.316 125.74l19.244 11.11-5.556 9.622-19.244-11.11zM222.222 88.889h22.222V100h-22.222zM229.023 42.42l5.554 9.624-19.247 11.109-5.554-9.623zM192.413 9.872l9.623 5.554-11.109 19.247-9.623-5.554zM211.111 94.444c0-33.694-27.417-61.11-61.111-61.11-33.694 0-61.111 27.416-61.111 61.11 0 15.734 5.9 30.523 16.667 41.912v2.533H94.444V150h11.112v11.111H94.444v11.111h11.112v22.222h88.888v-22.222h11.112v-11.11h-11.112V150h11.112v-11.111h-11.112v-2.533c10.762-11.39 16.667-26.178 16.667-41.912zm-27.778 88.89h-66.666v-11.112h66.666v11.111zm0-22.223h-66.666V150h66.666v11.111zM185 130.122l-1.667 1.634v7.133h-27.777v-23.011c9.555-2.484 16.666-11.106 16.666-21.434 0-12.255-9.966-22.222-22.222-22.222-12.256 0-22.222 9.967-22.222 22.222 0 10.328 7.105 18.95 16.666 21.434v23.01h-27.777v-7.132L115 130.122c-9.672-9.489-15-22.16-15-35.678 0-27.572 22.428-50 50-50s50 22.428 50 50c0 13.517-5.328 26.19-15 35.678zm-35-24.566c-6.128 0-11.111-4.984-11.111-11.112 0-6.127 4.983-11.11 11.111-11.11 6.122 0 11.111 4.983 11.111 11.11 0 6.128-4.989 11.112-11.111 11.112z"/><path d="M277.778 133.333c-12.256 0-22.222 9.967-22.222 22.223 0 5.588 2.138 10.638 5.555 14.544v51.239a55.002 55.002 0 0 0-16.667-4.389v-11.394H55.556v11.394a55.12 55.12 0 0 0-16.667 4.389V170.1c3.417-3.906 5.555-8.956 5.555-14.544 0-12.256-9.966-22.223-22.222-22.223C9.967 133.333 0 143.3 0 155.556c0 5.588 2.139 10.638 5.556 14.544v102.122c0 28.756 21.966 52.478 50 55.272v16.95h188.888v-16.95c28.034-2.8 50-26.516 50-55.272V170.1c3.417-3.906 5.556-8.956 5.556-14.544 0-12.256-9.967-22.223-22.222-22.223zM11.11 155.556c0-6.128 4.983-11.112 11.111-11.112 6.122 0 11.111 4.984 11.111 11.112 0 6.127-4.989 11.11-11.11 11.11-6.129 0-11.112-4.983-11.112-11.11zm16.811 72.222a55.983 55.983 0 0 0-11.255 11.255V176.99c1.783.467 3.627.789 5.555.789s3.767-.322 5.556-.79v50.79h.144zm27.634 16.666H44.444v11.112h11.112v11.11H44.444v11.112h11.112v11.11H44.444V300h11.112v16.283c-21.89-2.75-38.89-21.439-38.89-44.06 0-22.623 17-41.312 38.89-44.062v16.283zm122.222 88.89h-55.556V311.11h55.556v22.222zm55.555 0H188.89V300H111.11v33.333H66.667V216.667h166.666v116.666zm11.111-17.05V300h11.112v-11.111h-11.112v-11.111h11.112v-11.111h-11.112v-11.111h11.112v-11.112h-11.112v-16.283c21.89 2.75 38.89 21.439 38.89 44.061s-17 41.311-38.89 44.061zm38.89-77.25a55.983 55.983 0 0 0-11.256-11.256h.144v-50.79c1.784.468 3.628.79 5.556.79s3.766-.322 5.555-.79v62.045zm-5.556-72.367c-6.128 0-11.111-4.984-11.111-11.111 0-6.128 4.983-11.112 11.11-11.112 6.123 0 11.112 4.984 11.112 11.112 0 6.127-4.989 11.11-11.111 11.11z"/><path d="M105.556 294.444c15.316 0 27.777-12.46 27.777-27.777s-12.46-27.778-27.777-27.778-27.778 12.461-27.778 27.778c0 15.316 12.46 27.777 27.778 27.777zm0-44.444c9.188 0 16.666 7.478 16.666 16.667 0 9.189-7.478 16.666-16.666 16.666-9.19 0-16.667-7.477-16.667-16.666 0-9.19 7.478-16.667 16.667-16.667zM194.444 294.444c15.317 0 27.778-12.46 27.778-27.777s-12.46-27.778-27.778-27.778c-15.316 0-27.777 12.461-27.777 27.778 0 15.316 12.46 27.777 27.777 27.777zm0-44.444c9.19 0 16.667 7.478 16.667 16.667 0 9.189-7.478 16.666-16.667 16.666-9.188 0-16.666-7.477-16.666-16.666 0-9.19 7.478-16.667 16.666-16.667z"/></g></svg>
